X:1
T:Title
%%score { ( 1 2 ) | ( 3 4 ) }
L:1/8
Q:1/4=100
M:4/4
K:Eb
V:1 treble nm="Grand Piano"
V:2 treble 
V:3 bass 
V:4 bass 
V:1
 G2 =G2 =G2 .E2 | [EGB]2 [_DGB]2 [=DAB]2 [EB]2 | [Ec]>[Ec] [Ec]>[Ec] [EB]>[EB] [DA][B,EG] | %3
w: Haldor~Lillenas * * *|||
 D2 z2 B,2 z2 | [B,DA]2 [DA]2 [B,DA]2 .[F,DF]2 | [DAc]2 [DAc]2 [DAc]2 [_Gce]2 | %6
w: |||
 [B,EGB]2 [A,DFAB]2 [DFAB]2 [B,DG][DF] |[M:3/4] [G,E]6 |[M:1/4] [B,EG]2 | %9
w: |||
[M:4/4] [GB]>[F=A] [GB]>[FA] [GB]>[EG] [GB][Ge] | d2 d2 [Ad]4[K:bass] | %11
w: ||
 [FA]>[=EG] [FA]>[EG] [DA]>[DF] [_EG][FA] | z4 [GB]4 | z4 [Ge]4 | %14
w: |||
[M:9/8] (4:3:4ee.e z z/ e/ e2- e c2 |[M:4/4] B>=A B>c B2 G2 | G2 [DF]2 E4 |] %17
w: |||
V:2
 [G,B,E]->[G,B,E_G] [G,B,E]->[G,B,E_G] [G,B,E]->[G,B,EF] [G,B,]-[G,B,=G] | x8 | x8 | %3
 [B,F]3- [B,F]/-[B,CF-]/ F->[A,F] G,>F, | x8 | x8 | x8 |[M:3/4] x6 |[M:1/4] x2 |[M:4/4] x8 | %10
 A>G F>G z z/[K:bass] C,/ D,>B,, | x8 | [Ac]2 [B,AB]2 B,2 z2 | (3[Ge][Ge][Ge] [Ge]>[Ge] z2 _D2 | %14
[M:9/8] z2 e- e/ z/ z z z3 |[M:4/4] x8 | x8 |] %17
V:3
 [E,,E,]2 [B,,,B,,]2 [E,,E,]2 [B,,,B,,]2 | [E,,E,]2 [=E,,=E,]2 [F,,F,]2 [G,,G,]2 | %2
 [A,,A,]>[A,,A,] [A,,A,]>[A,,A,] [B,,G,]>[B,,G,] [B,,F,]B,, | z z/ C/ D4 z2 | %4
 z z/ G/ z z/ G/ z z/ G/ z A | [B,,B,]2 [F,,F,]2 [B,,B,]2 [=A,,=A,]2 | %6
 z z/[K:treble] B/ z z/ c/[K:bass] z z/ A/ z A, |[M:3/4] E,6 |[M:1/4] E,2 | %9
[M:4/4] [E,E]>[E,E] [E,E]>[E,E] [E,E]>[E,B,] [E,E][E,B,] | z4 B,4 | %11
 [B,,B,]>[B,,B,] [B,,B,]>[B,,B,] [B,,F,]>[B,,B,] [B,,B,][B,,B,] | B,2 z2 E,4 | %13
 (3[E,B,][E,B,][E,B,] [E,B,]>[E,B,] E2 z2 | %14
[M:9/8][K:treble] (4:3:4[A,CA][A,CA].[A,CA] z z/ [A,CA]/ [=A,C_G]2- [A,CG] [A,EG]2 | %15
[M:4/4] [B,EG]>[B,E_G] [B,E=G]>[B,EA] [B,EG]2[K:bass] [B,E]2 | [F,=A,C]2 [B,,_A,]2 [E,G,]4 |] %17
V:4
 x8 | x8 | x8 | B,,6 z2 | B,,2 [F,,F,]2 B,,2 F,,2 | x8 | %6
 B,,2[K:treble] B,,2[K:bass] [B,,F,]2 B,,2 |[M:3/4] z z/ B,,/ =A,,>B,, E,,2 |[M:1/4] x2 | %9
[M:4/4] x8 | [B,,B,]>[B,,B,] [B,,B,]>[B,,B,] B,,2 z2 | x8 | B,,>C, D,>B,, z z/ G,/ B,>E | z4 E,4 | %14
[M:9/8][K:treble] z2 [A,CA]- [A,CA]/ z/ z z z3 |[M:4/4] x6[K:bass] x2 | x8 |] %17

